vcv/res/VoidLinkAudioSend.svg

<?xml version="1.0" encoding="UTF-8" standalone="no"?>
<!DOCTYPE svg PUBLIC "-//W3C//DTD SVG 1.1//EN" "http://www.w3.org/Graphics/SVG/1.1/DTD/svg11.dtd">
<svg width="100%" height="100%" viewBox="0 0 90 380" version="1.1" xmlns="http://www.w3.org/2000/svg" xmlns:xlink="http://www.w3.org/1999/xlink" xml:space="preserve" xmlns:serif="http://www.serif.com/" style="fill-rule:evenodd;clip-rule:evenodd;">
    <rect id="rect1" x="0" y="0" width="90" height="380" style="fill:rgb(10,10,10);fill-rule:nonzero;"/>
    <rect id="rect2" x="0.75" y="0.75" width="88.5" height="378.5" style="fill:none;fill-rule:nonzero;stroke:rgb(224,122,58);stroke-width:0.5px;"/>
    <path id="text2" d="M14.456,25.522L15.902,25.522L17.308,30.44L18.728,25.522L20.134,25.522L17.923,32L16.645,32L14.456,25.522ZM25.803,32.18C24.877,32.18 24.17,31.928 23.681,31.424C23.024,30.806 22.696,29.916 22.696,28.752C22.696,27.566 23.024,26.675 23.681,26.081C24.17,25.577 24.877,25.325 25.803,25.325C26.729,25.325 27.437,25.577 27.926,26.081C28.579,26.675 28.906,27.566 28.906,28.752C28.906,29.916 28.579,30.806 27.926,31.424C27.437,31.928 26.729,32.18 25.803,32.18ZM27.082,30.44C27.396,30.044 27.552,29.482 27.552,28.752C27.552,28.026 27.394,27.465 27.078,27.069C26.764,26.671 26.339,26.472 25.803,26.472C25.267,26.472 24.839,26.669 24.52,27.065C24.201,27.46 24.041,28.023 24.041,28.752C24.041,29.482 24.201,30.044 24.52,30.44C24.839,30.835 25.267,31.033 25.803,31.033C26.339,31.033 26.766,30.835 27.082,30.44ZM31.833,25.522L33.178,25.522L33.178,32L31.833,32L31.833,25.522ZM39.229,32L36.439,32L36.439,25.522L39.229,25.522C39.631,25.528 39.965,25.575 40.231,25.663C40.686,25.813 41.053,26.086 41.334,26.485C41.56,26.807 41.714,27.156 41.796,27.531C41.878,27.906 41.919,28.263 41.919,28.603C41.919,29.464 41.746,30.194 41.4,30.792C40.932,31.597 40.208,32 39.229,32ZM40.236,27.175C40.028,26.823 39.616,26.647 39.001,26.647L37.753,26.647L37.753,30.875L39.001,30.875C39.64,30.875 40.085,30.56 40.337,29.93C40.475,29.584 40.543,29.173 40.543,28.695C40.543,28.036 40.441,27.529 40.236,27.175ZM49.439,25.522L50.792,25.522L50.792,30.835L54,30.835L54,32L49.439,32L49.439,25.522ZM56.831,25.522L58.176,25.522L58.176,32L56.831,32L56.831,25.522ZM66.675,32L65.322,32L62.676,27.399L62.676,32L61.415,32L61.415,25.522L62.834,25.522L65.414,30.044L65.414,25.522L66.675,25.522L66.675,32ZM75.676,32L73.936,32L71.936,29.17L71.29,29.833L71.29,32L69.958,32L69.958,25.522L71.29,25.522L71.29,28.19L73.791,25.522L75.54,25.522L72.885,28.19L75.676,32Z" style="fill:rgb(204,204,204);fill-rule:nonzero;"/>
    <path id="rect3" d="M7,42L83,42C83.554,42 84,42.446 84,43L84,57C84,57.554 83.554,58 83,58L7,58C6.446,58 6,57.554 6,57L6,43C6,42.446 6.446,42 7,42Z" style="fill:rgb(224,122,58);fill-rule:nonzero;"/>
    <path id="text3" d="M29.982,52.96C30.337,52.96 30.625,52.921 30.847,52.843C31.267,52.693 31.477,52.415 31.477,52.008C31.477,51.77 31.372,51.586 31.164,51.456C30.956,51.329 30.629,51.217 30.183,51.119L29.421,50.948C28.672,50.779 28.155,50.595 27.868,50.396C27.383,50.064 27.141,49.545 27.141,48.839C27.141,48.194 27.375,47.659 27.844,47.232C28.312,46.806 29.001,46.593 29.909,46.593C30.668,46.593 31.314,46.795 31.848,47.198C32.385,47.599 32.666,48.181 32.692,48.946L31.247,48.946C31.221,48.513 31.032,48.206 30.681,48.023C30.446,47.903 30.155,47.843 29.807,47.843C29.419,47.843 29.11,47.921 28.879,48.077C28.648,48.233 28.532,48.451 28.532,48.731C28.532,48.989 28.646,49.181 28.874,49.308C29.021,49.392 29.333,49.492 29.812,49.605L31.052,49.903C31.595,50.034 32.006,50.208 32.282,50.426C32.712,50.764 32.927,51.254 32.927,51.896C32.927,52.553 32.674,53.1 32.17,53.536C31.669,53.969 30.959,54.186 30.041,54.186C29.104,54.186 28.366,53.972 27.829,53.546C27.292,53.116 27.023,52.527 27.023,51.778L28.459,51.778C28.505,52.107 28.594,52.353 28.728,52.516C28.972,52.812 29.39,52.96 29.982,52.96ZM42.05,50.855L38.554,50.855L38.554,52.706L42.538,52.706L42.538,54L37.084,54L37.084,46.803L42.362,46.803L42.362,48.077L38.554,48.077L38.554,49.605L42.05,49.605L42.05,50.855ZM52.53,54L51.026,54L48.087,48.888L48.087,54L46.686,54L46.686,46.803L48.263,46.803L51.129,51.827L51.129,46.803L52.53,46.803L52.53,54ZM60.032,54L56.932,54L56.932,46.803L60.032,46.803C60.478,46.809 60.849,46.861 61.146,46.959C61.65,47.125 62.059,47.429 62.371,47.872C62.622,48.23 62.793,48.618 62.884,49.034C62.975,49.451 63.021,49.848 63.021,50.226C63.021,51.183 62.828,51.993 62.444,52.657C61.924,53.552 61.119,54 60.032,54ZM61.15,48.639C60.919,48.248 60.462,48.053 59.778,48.053L58.392,48.053L58.392,52.75L59.778,52.75C60.488,52.75 60.983,52.4 61.263,51.7C61.416,51.316 61.492,50.859 61.492,50.328C61.492,49.596 61.378,49.033 61.15,48.639Z" style="fill:rgb(10,10,10);fill-rule:nonzero;"/>
    <path id="text4" d="M28.728,115.131L30.019,115.131C30.274,115.131 30.479,115.203 30.636,115.348C30.792,115.491 30.87,115.693 30.87,115.953C30.87,116.177 30.8,116.372 30.661,116.539C30.522,116.704 30.308,116.787 30.019,116.787L29.116,116.787L29.116,118L28.728,118L28.728,115.131ZM30.478,115.955C30.478,115.744 30.399,115.601 30.243,115.525C30.157,115.485 30.039,115.465 29.89,115.465L29.116,115.465L29.116,116.459L29.89,116.459C30.064,116.459 30.205,116.422 30.313,116.348C30.423,116.273 30.478,116.143 30.478,115.955L30.478,115.955ZM32.78,115.131L32.78,116.904C32.78,117.113 32.819,117.286 32.897,117.424C33.013,117.632 33.209,117.736 33.483,117.736C33.813,117.736 34.037,117.624 34.155,117.398C34.219,117.276 34.251,117.111 34.251,116.904L34.251,115.131L34.646,115.131L34.646,116.742C34.646,117.095 34.598,117.367 34.503,117.557C34.328,117.903 33.999,118.076 33.515,118.076C33.03,118.076 32.701,117.903 32.528,117.557C32.433,117.367 32.386,117.095 32.386,116.742L32.386,115.131L32.78,115.131ZM37.325,116.344C37.489,116.344 37.617,116.321 37.708,116.275C37.851,116.204 37.923,116.075 37.923,115.889C37.923,115.701 37.847,115.575 37.694,115.51C37.608,115.473 37.481,115.455 37.312,115.455L36.618,115.455L36.618,116.344L37.325,116.344ZM37.456,117.668C37.694,117.668 37.864,117.599 37.966,117.461C38.03,117.374 38.062,117.268 38.062,117.145C38.062,116.936 37.968,116.794 37.782,116.719C37.683,116.678 37.552,116.658 37.39,116.658L36.618,116.658L36.618,117.668L37.456,117.668ZM36.237,115.131L37.47,115.131C37.806,115.131 38.045,115.231 38.187,115.432C38.27,115.55 38.312,115.687 38.312,115.842C38.312,116.023 38.26,116.171 38.157,116.287C38.104,116.348 38.027,116.404 37.927,116.455C38.074,116.511 38.184,116.574 38.257,116.645C38.386,116.77 38.45,116.942 38.45,117.162C38.45,117.347 38.392,117.514 38.276,117.664C38.103,117.888 37.828,118 37.45,118L36.237,118L36.237,115.131ZM39.915,115.131L40.304,115.131L40.304,117.658L41.757,117.658L41.757,118L39.915,118L39.915,115.131ZM43.228,115.131L43.62,115.131L43.62,118L43.228,118L43.228,115.131ZM45.505,117.074C45.514,117.237 45.552,117.369 45.62,117.471C45.749,117.661 45.976,117.756 46.302,117.756C46.448,117.756 46.58,117.735 46.7,117.693C46.932,117.613 47.048,117.468 47.048,117.26C47.048,117.104 46.999,116.992 46.901,116.926C46.802,116.861 46.647,116.804 46.437,116.756L46.048,116.668C45.794,116.611 45.614,116.548 45.509,116.479C45.326,116.359 45.235,116.18 45.235,115.941C45.235,115.684 45.325,115.472 45.503,115.307C45.681,115.141 45.934,115.059 46.261,115.059C46.562,115.059 46.817,115.131 47.026,115.277C47.237,115.422 47.343,115.654 47.343,115.973L46.978,115.973C46.958,115.819 46.916,115.701 46.853,115.619C46.734,115.469 46.533,115.395 46.249,115.395C46.02,115.395 45.855,115.443 45.755,115.539C45.655,115.635 45.604,115.747 45.604,115.875C45.604,116.016 45.663,116.118 45.78,116.184C45.857,116.225 46.031,116.277 46.302,116.34L46.704,116.432C46.898,116.476 47.048,116.536 47.153,116.613C47.336,116.747 47.427,116.942 47.427,117.197C47.427,117.515 47.311,117.742 47.079,117.879C46.849,118.016 46.58,118.084 46.274,118.084C45.918,118.084 45.638,117.993 45.437,117.811C45.235,117.63 45.136,117.384 45.14,117.074L45.505,117.074ZM48.929,115.131L49.321,115.131L49.321,116.316L50.813,116.316L50.813,115.131L51.206,115.131L51.206,118L50.813,118L50.813,116.658L49.321,116.658L49.321,118L48.929,118L48.929,115.131ZM52.896,115.131L53.288,115.131L53.288,118L52.896,118L52.896,115.131ZM54.919,115.131L55.378,115.131L56.827,117.455L56.827,115.131L57.196,115.131L57.196,118L56.761,118L55.29,115.678L55.29,118L54.919,118L54.919,115.131ZM60.048,115.057C60.317,115.057 60.55,115.109 60.747,115.213C61.032,115.363 61.207,115.625 61.271,116L60.886,116C60.839,115.79 60.742,115.638 60.595,115.543C60.448,115.447 60.262,115.398 60.038,115.398C59.772,115.398 59.549,115.498 59.366,115.697C59.185,115.896 59.095,116.193 59.095,116.588C59.095,116.929 59.17,117.207 59.319,117.422C59.469,117.635 59.713,117.742 60.052,117.742C60.311,117.742 60.525,117.667 60.694,117.518C60.865,117.367 60.952,117.123 60.956,116.787L60.058,116.787L60.058,116.465L61.317,116.465L61.317,118L61.067,118L60.974,117.631C60.842,117.775 60.726,117.876 60.624,117.932C60.453,118.028 60.237,118.076 59.974,118.076C59.634,118.076 59.341,117.966 59.097,117.746C58.83,117.47 58.696,117.091 58.696,116.609C58.696,116.129 58.826,115.747 59.087,115.463C59.334,115.192 59.655,115.057 60.048,115.057L60.048,115.057Z" style="fill:rgb(102,102,102);fill-rule:nonzero;"/>
    <path id="line4" d="M8,225L82,225" style="fill:none;fill-rule:nonzero;stroke:rgb(34,34,34);stroke-width:0.5px;"/>
    <path id="text5" d="M32.041,236.401L32.041,237.039L30.964,237.039L30.964,240L30.207,240L30.207,237.039L29.126,237.039L29.126,236.401L32.041,236.401ZM35.984,240.1C35.47,240.1 35.077,239.96 34.805,239.68C34.44,239.337 34.258,238.842 34.258,238.196C34.258,237.537 34.44,237.042 34.805,236.711C35.077,236.431 35.47,236.292 35.984,236.292C36.498,236.292 36.892,236.431 37.163,236.711C37.526,237.042 37.708,237.537 37.708,238.196C37.708,238.842 37.526,239.337 37.163,239.68C36.892,239.96 36.498,240.1 35.984,240.1ZM36.695,239.133C36.869,238.914 36.956,238.601 36.956,238.196C36.956,237.792 36.868,237.48 36.692,237.261C36.518,237.039 36.282,236.929 35.984,236.929C35.686,236.929 35.449,237.039 35.271,237.258C35.094,237.478 35.005,237.791 35.005,238.196C35.005,238.601 35.094,238.914 35.271,239.133C35.449,239.353 35.686,239.463 35.984,239.463C36.282,239.463 36.519,239.353 36.695,239.133ZM43.671,236.401L44.423,236.401L44.423,239.353L46.205,239.353L46.205,240L43.671,240L43.671,236.401ZM48.666,236.401L49.413,236.401L49.413,240L48.666,240L48.666,236.401ZM55.024,240L54.272,240L52.802,237.444L52.802,240L52.102,240L52.102,236.401L52.89,236.401L54.323,238.914L54.323,236.401L55.024,236.401L55.024,240ZM60.913,240L59.947,240L58.836,238.428L58.477,238.796L58.477,240L57.737,240L57.737,236.401L58.477,236.401L58.477,237.883L59.866,236.401L60.838,236.401L59.363,237.883L60.913,240Z" style="fill:rgb(136,136,136);fill-rule:nonzero;"/>
    <path id="text6" d="M26.192,305.131L26.581,305.131L26.581,307.658L28.034,307.658L28.034,308L26.192,308L26.192,305.131Z" style="fill:rgb(102,102,102);fill-rule:nonzero;"/>
    <path id="text7" d="M63.194,306.445C63.377,306.445 63.521,306.409 63.626,306.336C63.733,306.263 63.786,306.132 63.786,305.941C63.786,305.737 63.712,305.598 63.563,305.523C63.484,305.484 63.378,305.465 63.245,305.465L62.296,305.465L62.296,306.445L63.194,306.445ZM61.907,305.131L63.235,305.131C63.454,305.131 63.634,305.163 63.776,305.227C64.046,305.349 64.181,305.575 64.181,305.904C64.181,306.076 64.145,306.217 64.073,306.326C64.003,306.436 63.904,306.523 63.776,306.59C63.888,306.635 63.972,306.695 64.028,306.77C64.086,306.844 64.118,306.964 64.124,307.131L64.138,307.516C64.142,307.625 64.151,307.706 64.165,307.76C64.188,307.851 64.23,307.91 64.29,307.936L64.29,308L63.813,308C63.8,307.975 63.79,307.943 63.782,307.904C63.774,307.865 63.768,307.79 63.763,307.678L63.739,307.199C63.73,307.012 63.66,306.886 63.53,306.822C63.456,306.787 63.34,306.77 63.181,306.77L62.296,306.77L62.296,308L61.907,308L61.907,305.131Z" style="fill:rgb(102,102,102);fill-rule:nonzero;"/>
    <g id="g18" transform="matrix(0.085,0,0,0.085,18,320)">
        <g id="path7" transform="matrix(1,0,0,1,-67.5718,0)">
            <path d="M545.78,64.56L545.78,83.23L545.6,83.46C540.92,89.28 535.84,92.24 530.49,92.24C523.6,92.24 519.96,88.24 519.96,80.65L519.96,53.79L513.59,53.79L513.59,81.53C513.437,85.822 514.861,90.024 517.59,93.34C520.27,96.47 523.85,97.99 528.52,97.99C534.3,97.99 539.52,95.44 544.13,90.41L544.38,90.14L545.75,90.14L545.75,92.22L546.59,97.11L552.12,97.11L552.12,64.56L545.78,64.56Z" style="fill:white;fill-rule:nonzero;"/>
        </g>
        <g id="path8" transform="matrix(1,0,0,1,-67.5718,0)">
            <path d="M692.58,92.12C687.58,92 683.68,90.79 681.09,88.5C678.251,85.854 676.514,82.231 676.23,78.36L676.13,77.44C676.005,75.373 676.045,73.3 676.25,71.24C676.58,67.02 678.08,63.74 680.74,61.5C683.3,59.251 686.592,58.006 690,58C693.413,58.004 696.714,59.232 699.3,61.46C702.09,63.78 703.63,67.21 703.87,71.66L703.92,72.53L692.23,72.53L692.23,77.4L710.23,77.4L710.23,75.4C710.396,69.606 708.559,63.928 705.03,59.33C701.62,55.03 696.56,52.85 689.98,52.85C683.4,52.85 678.33,55.03 674.98,59.33C671.63,63.63 669.78,69.33 669.78,76.06C669.78,82.79 671.78,88.15 675.58,92.06C679.38,95.97 684.62,98 691,98L692.55,98L692.58,92.12Z" style="fill:white;fill-rule:nonzero;"/>
        </g>
        <g id="path9" transform="matrix(1,0,0,1,-67.5718,0)">
            <path d="M305,53.79L305,83.23L304.82,83.46C300.15,89.28 295.06,92.24 289.71,92.24C282.82,92.24 279.18,88.24 279.18,80.65L279.18,67.9L272.81,67.9L272.81,81.53C272.657,85.822 274.081,90.024 276.81,93.34C279.5,96.47 283.07,97.99 287.74,97.99C293.53,97.99 298.74,95.44 303.36,90.41L303.6,90.14L305,90.14L305,92.22L305.84,97.11L311.37,97.11L311.37,53.79L305,53.79Z" style="fill:white;fill-rule:nonzero;"/>
        </g>
        <g id="path10" transform="matrix(1,0,0,1,-67.5718,0)">
            <path d="M456.62,91.82C454.94,91.09 454.09,89.29 454.09,86.47L454.09,59L459.71,59L459.71,53.79L454.09,53.79L454.09,45.22L440,59L447.72,59L447.72,87.18C447.72,94.46 451.72,97.99 459.77,97.99C462.236,98.002 464.672,97.448 466.89,96.37L466.89,91.37C465.116,92.149 463.207,92.573 461.27,92.62C459.683,92.662 458.102,92.39 456.62,91.82Z" style="fill:white;fill-rule:nonzero;"/>
        </g>
        <g id="path11" transform="matrix(1,0,0,1,-67.5718,0)">
            <path d="M388.82,91.43C386.856,91.907 384.841,92.148 382.82,92.15C377.53,92.15 373.31,90.6 370.28,87.54C367.25,84.48 365.72,80.41 365.72,75.45C365.72,70.49 367.26,66.45 370.28,63.36C373.3,60.27 377.53,58.75 382.82,58.75C384.841,58.752 386.856,58.993 388.82,59.47L388.82,53.76C386.614,53.195 384.347,52.906 382.07,52.9C376.128,52.78 370.366,54.968 366,59C361.62,63.05 359.39,68.57 359.39,75.41C359.39,82.25 361.62,87.77 366,91.82C370.353,95.881 376.117,98.098 382.07,98C384.347,97.997 386.614,97.712 388.82,97.15L388.82,91.43Z" style="fill:white;fill-rule:nonzero;"/>
        </g>
        <g id="path12" transform="matrix(1,0,0,1,-67.5718,0)">
            <path d="M148.6,92.4C147.87,92.29 147.155,92.095 146.47,91.82C144.79,91.09 143.94,89.29 143.94,86.47L143.94,59L148.6,59L148.6,53.79L143.94,53.79L143.94,45.22L129.84,59L137.56,59L137.56,87.18C137.56,94.18 141.18,97.67 148.56,97.96L148.6,92.4Z" style="fill:white;fill-rule:nonzero;"/>
        </g>
        <g id="path13" transform="matrix(1,0,0,1,-67.5718,0)">
            <path d="M619.24,54.3C615.996,55.582 613.152,57.705 611,60.45L610.75,60.75L609.35,60.75L609.35,58.68L608.51,53.79L603,53.79L603,97.11L609.37,97.11L609.37,67.16L609.52,66.95C611.406,64.337 613.963,62.281 616.92,61C617.677,60.66 618.452,60.36 619.24,60.1L619.24,54.3Z" style="fill:white;fill-rule:nonzero;"/>
        </g>
        <g id="path14" transform="matrix(1,0,0,1,-67.5718,0)">
            <path d="M211.81,60.45L211.56,60.75L210.16,60.75L210.16,58.68L209.32,53.79L203.79,53.79L203.79,92.38L210.16,92.38L210.16,67.16L210.32,66.95C212.199,64.334 214.753,62.277 217.71,61C220.83,59.604 224.212,58.888 227.63,58.9L227.63,52.9C221.466,52.781 215.594,55.583 211.81,60.45Z" style="fill:white;fill-rule:nonzero;"/>
        </g>
        <g id="path15" transform="matrix(1,0,0,1,-67.5718,0)">
            <path d="M84.76,78.16C83.143,76.275 80.985,74.931 78.58,74.31L70.76,72.31C68.412,71.722 66.128,70.904 63.94,69.87C61.78,68.87 60.69,67.27 60.69,65.27C60.747,63.208 61.931,61.336 63.77,60.4C65.71,59.2 68.58,58.62 72.54,58.62C74.538,58.63 76.529,58.851 78.48,59.28L78.48,53.67C75.824,53.157 73.125,52.899 70.42,52.9C65.53,52.9 61.64,54.14 58.84,56.58C56.085,58.916 54.547,62.39 54.67,66C54.562,68.522 55.466,70.986 57.18,72.84C58.872,74.656 61.048,75.954 63.45,76.58L71.22,78.66C73.518,79.24 75.76,80.023 77.92,81C80.05,82 81.12,83.37 81.12,85.07C81.12,88.82 78.87,91.07 74.43,91.88L74.43,97.72C77.567,97.474 80.569,96.336 83.08,94.44C85.708,92.443 87.247,89.32 87.23,86.02C87.23,82.71 86.4,80.06 84.76,78.16Z" style="fill:white;fill-rule:nonzero;"/>
        </g>
        <g id="polygon15" transform="matrix(1,0,0,1,-67.5718,0)">
            <path d="M481.4,223.41L481.4,323.19L505.32,323.19L505.32,217.96L481.4,223.41Z" style="fill:white;fill-rule:nonzero;"/>
        </g>
        <g id="polygon16" transform="matrix(1,0,0,1,-67.5718,0)">
            <path d="M481.4,151.43L481.4,182.33L505.32,176.87L505.32,151.43L481.4,151.43Z" style="fill:white;fill-rule:nonzero;"/>
        </g>
        <g id="path16" transform="matrix(1,0,0,1,-67.5718,0)">
            <path d="M403,241.31C402.32,262.06 396,277.99 384.26,288.68C359.79,311.152 321.73,311.152 297.26,288.68C291.222,283.116 286.559,276.224 283.64,268.55L260.46,273.84C264.291,284.427 270.297,294.095 278.09,302.22C293.68,318.48 314.7,326.72 340.59,326.72C366.48,326.72 387.59,318.48 403.27,302.21C418.95,285.94 427,264.07 427,237.31L427,235.83L403,241.31Z" style="fill:white;fill-rule:nonzero;"/>
        </g>
        <g id="path17" transform="matrix(1,0,0,1,-67.5718,0)">
            <path d="M340.58,147.9C314.69,147.9 293.66,156.14 278.08,172.4C263.08,188.04 255.17,208.79 254.56,234.1L278.8,228.57C280.28,210.29 286.47,196.02 297.23,186.13C321.61,163.446 359.85,163.446 384.23,186.13C389.053,190.595 392.997,195.924 395.86,201.84L419.26,196.5C415.415,187.563 409.977,179.4 403.21,172.41C387.56,156.15 366.47,147.9 340.58,147.9Z" style="fill:white;fill-rule:nonzero;"/>
        </g>
        <g id="polygon17" transform="matrix(1,0,0,1,-67.5718,0)">
            <path d="M183.8,250.13L225.21,151.43L199.23,151.43L158.17,255.91L183.8,250.13Z" style="fill:white;fill-rule:nonzero;"/>
        </g>
        <g id="polygon18" transform="matrix(1,0,0,1,-67.5718,0)">
            <path d="M124.76,263.45L80.73,151.43L54.76,151.43L103.75,268.19L124.76,263.45Z" style="fill:white;fill-rule:nonzero;"/>
        </g>
        <g id="path18" transform="matrix(1,0,0,1,-67.5718,0)">
            <path d="M687.28,176.94L660.6,182.94C664.16,185.164 667.475,187.759 670.49,190.68C682.74,202.54 689,218.22 689,237.29C689,256.36 683,272.07 670.79,284C658.58,295.93 642.39,302 622.45,302L585.39,302.12L585.06,200L563.61,204.84L564.01,323.74L623.46,323.54C634.238,323.597 644.953,321.892 655.18,318.49C672.435,312.665 687.103,300.95 696.6,285.41C705.721,270.998 710.47,254.245 710.27,237.19C710.39,215.73 702.76,194.931 688.79,178.64C688.31,178.07 687.78,177.51 687.28,176.94Z" style="fill:white;fill-rule:nonzero;"/>
        </g>
    </g>
</svg>

<?xml version="1.0" encoding="UTF-8"?>
<svg xmlns="http://www.w3.org/2000/svg" version="1.1"
     viewBox="0 0 90 380" width="90px" height="380px">

  <!-- Background -->
  <rect x="0" y="0" width="90" height="380" fill="#0a0a0a"/>

  <!-- Outer accent border (Sender = orange) -->
  <rect x="0.75" y="0.75" width="88.5" height="378.5"
        fill="none" stroke="#e07a3a" stroke-width="0.5"/>

  <!-- Module name banner (text drawn in C++ on top) -->
  <rect x="6" y="42" width="78" height="16" fill="#e07a3a" rx="1"/>

  <!-- Separator before TEMPO/STATE -->
  <line x1="8" y1="138" x2="82" y2="138" stroke="#444" stroke-width="0.5"/>

  <!-- Separator before timing outputs -->
  <line x1="8" y1="233" x2="82" y2="233" stroke="#444" stroke-width="0.5"/>

  <!-- Separator before audio inputs -->
  <line x1="8" y1="285" x2="82" y2="285" stroke="#444" stroke-width="0.5"/>

  <!-- Structure Void logo at the bottom -->
  <g transform="translate(24, 345) scale(0.058)">
    <path fill="#aaaaaa" d="M545.78,64.56V83.23l-.18.23c-4.68,5.82-9.76,8.78-15.11,8.78-6.89,0-10.53-4-10.53-11.59V53.79h-6.37V81.53a17.6,17.6,0,0,0,4,11.81c2.68,3.13,6.26,4.65,10.93,4.65,5.78,0,11-2.55,15.61-7.58l.25-.27h1.37v2.08l.84,4.89h5.53V64.56Z"/>
    <path fill="#aaaaaa" d="M692.58,92.12c-5-.12-8.9-1.33-11.49-3.62a15.4,15.4,0,0,1-4.86-10.14l-.1-.92h0a38.84,38.84,0,0,1,.12-6.2h0c.33-4.22,1.83-7.5,4.49-9.74A14.07,14.07,0,0,1,690,58a14.27,14.27,0,0,1,9.3,3.46c2.79,2.32,4.33,5.75,4.57,10.2l.05.87H692.23v4.87h18v-2a25.21,25.21,0,0,0-5.2-16.07c-3.41-4.3-8.47-6.48-15.05-6.48s-11.65,2.18-15,6.48-5.2,10-5.2,16.73,2,12.09,5.8,16S684.62,98,691,98c.52,0,1,0,1.55,0Z"/>
    <path fill="#aaaaaa" d="M305,53.79V83.23l-.18.23c-4.67,5.82-9.76,8.78-15.11,8.78-6.89,0-10.53-4-10.53-11.59V67.9h-6.37V81.53a17.6,17.6,0,0,0,4,11.81c2.69,3.13,6.26,4.65,10.93,4.65,5.79,0,11-2.55,15.62-7.58l.24-.27H305v2.08l.84,4.89h5.53V53.79Z"/>
    <path fill="#aaaaaa" d="M456.62,91.82c-1.68-.73-2.53-2.53-2.53-5.35V59h5.62V53.79h-5.62V45.22L440,59h7.72V87.18c0,7.28,4,10.81,12.05,10.81a16.11,16.11,0,0,0,7.12-1.62v-5a14.87,14.87,0,0,1-5.62,1.25A12.08,12.08,0,0,1,456.62,91.82Z"/>
    <path fill="#aaaaaa" d="M388.82,91.43a25.52,25.52,0,0,1-6,.72c-5.29,0-9.51-1.55-12.54-4.61s-4.56-7.13-4.56-12.09,1.54-9,4.56-12.09,7.25-4.61,12.54-4.61a25.52,25.52,0,0,1,6,.72V53.76a27.51,27.51,0,0,0-6.75-.86A23,23,0,0,0,366,59c-4.38,4.05-6.61,9.57-6.61,16.41s2.23,12.36,6.61,16.41A23,23,0,0,0,382.07,98a27.5,27.5,0,0,0,6.75-.85Z"/>
    <path fill="#aaaaaa" d="M148.6,92.4a9.56,9.56,0,0,1-2.13-.58c-1.68-.73-2.53-2.53-2.53-5.35V59h4.66V53.79h-4.66V45.22L129.84,59h7.72V87.18c0,7,3.62,10.49,11,10.78Z"/>
    <path fill="#aaaaaa" d="M619.24,54.3A19.64,19.64,0,0,0,611,60.45l-.25.3h-1.4V58.68l-.84-4.89H603V97.11h6.37V67.16l.15-.21A17.91,17.91,0,0,1,616.92,61a24.18,24.18,0,0,1,2.32-.9Z"/>
    <path fill="#aaaaaa" d="M211.81,60.45l-.25.3h-1.4V58.68l-.84-4.89h-5.53V92.38h6.37V67.16l.16-.21A17.78,17.78,0,0,1,217.71,61a24.07,24.07,0,0,1,9.92-2.1v-6A19.56,19.56,0,0,0,211.81,60.45Z"/>
    <path fill="#aaaaaa" d="M84.76,78.16a12.14,12.14,0,0,0-6.18-3.85l-7.82-2a37,37,0,0,1-6.82-2.44c-2.16-1-3.25-2.6-3.25-4.6a5.64,5.64,0,0,1,3.08-4.87c1.94-1.2,4.81-1.78,8.77-1.78a28.37,28.37,0,0,1,5.94.66V53.67a42.45,42.45,0,0,0-8.06-.77c-4.89,0-8.78,1.24-11.58,3.68A11.82,11.82,0,0,0,54.67,66a9.48,9.48,0,0,0,2.51,6.84,13.08,13.08,0,0,0,6.27,3.74l7.77,2.08A40,40,0,0,1,77.92,81c2.13,1,3.2,2.37,3.2,4.07,0,3.75-2.25,6-6.69,6.81v5.84a16.49,16.49,0,0,0,8.65-3.28,10.51,10.51,0,0,0,4.15-8.42C87.23,82.71,86.4,80.06,84.76,78.16Z"/>
    <polygon fill="#aaaaaa" points="481.4 223.41 481.4 323.19 505.32 323.19 505.32 217.96 481.4 223.41"/>
    <polygon fill="#aaaaaa" points="481.4 151.43 481.4 182.33 505.32 176.87 505.32 151.43 481.4 151.43"/>
    <path fill="#aaaaaa" d="M403,241.31c-.68,20.75-7,36.68-18.74,47.37a64.31,64.31,0,0,1-87,0,53,53,0,0,1-13.62-20.13l-23.18,5.29a80.64,80.64,0,0,0,17.63,28.38c15.59,16.26,36.61,24.5,62.5,24.5s47-8.24,62.68-24.51S427,264.07,427,237.31c0-.48,0-1,0-1.48Z"/>
    <path fill="#aaaaaa" d="M340.58,147.9c-25.89,0-46.92,8.24-62.5,24.5-15,15.64-22.91,36.39-23.52,61.7l24.24-5.53c1.48-18.28,7.67-32.55,18.43-42.44a63.86,63.86,0,0,1,87,0,52.68,52.68,0,0,1,11.63,15.71l23.4-5.34a80.21,80.21,0,0,0-16.05-24.09C387.56,156.15,366.47,147.9,340.58,147.9Z"/>
    <polygon fill="#aaaaaa" points="183.8 250.13 225.21 151.43 199.23 151.43 158.17 255.91 183.8 250.13"/>
    <polygon fill="#aaaaaa" points="124.76 263.45 80.73 151.43 54.76 151.43 103.75 268.19 124.76 263.45"/>
    <path fill="#aaaaaa" d="M687.28,176.94l-26.68,6a59.59,59.59,0,0,1,9.89,7.74C682.74,202.54,689,218.22,689,237.29S683,272.07,670.79,284s-28.4,18-48.34,18l-37.06.12L585.06,200l-21.45,4.84.4,118.9,59.45-.2a98.84,98.84,0,0,0,31.72-5.05,77.65,77.65,0,0,0,41.42-33.08,88.23,88.23,0,0,0,13.67-48.22,89.18,89.18,0,0,0-21.48-58.55C688.31,178.07,687.78,177.51,687.28,176.94Z"/>
  </g>

</svg>
